static/img/kroki/80574930a6515f71c2656eb891be706b.svg

<?xml version="1.0" encoding="us-ascii" standalone="no"?><svg xmlns="http://www.w3.org/2000/svg" xmlns:xlink="http://www.w3.org/1999/xlink" contentStyleType="text/css" height="252px" preserveAspectRatio="none" style="width:495px;height:252px;" version="1.1" viewBox="0 0 495 252" width="495px" zoomAndPan="magnify"><defs/><g><!--class slack_conversation--><g id="elem_slack_conversation"><rect codeLine="22" fill="#3D176E" height="39.7891" id="slack_conversation" rx="2.5" ry="2.5" style="stroke:#000D19;stroke-width:0.5;" width="199" x="7" y="106.79"/><ellipse cx="22" cy="126.6845" fill="#ADD1B2" rx="11" ry="11" style="stroke:#181818;stroke-width:1.0;"/><path d="M24.9688,132.3252 Q24.3906,132.622 23.75,132.7627 Q23.1094,132.9189 22.4063,132.9189 Q19.9063,132.9189 18.5781,131.2783 Q17.2656,129.622 17.2656,126.497 Q17.2656,123.372 18.5781,121.7158 Q19.9063,120.0595 22.4063,120.0595 Q23.1094,120.0595 23.75,120.2158 Q24.4063,120.372 24.9688,120.6689 L24.9688,123.3877 Q24.3438,122.8095 23.75,122.5439 Q23.1563,122.2627 22.5313,122.2627 Q21.1875,122.2627 20.5,123.3408 Q19.8125,124.4033 19.8125,126.497 Q19.8125,128.5908 20.5,129.6689 Q21.1875,130.7314 22.5313,130.7314 Q23.1563,130.7314 23.75,130.4658 Q24.3438,130.1845 24.9688,129.6064 L24.9688,132.3252 Z " fill="#000000"/><text fill="#D9B8FF" font-family="Helvetica" font-size="17" lengthAdjust="spacing" textLength="157" x="41" y="132.5698">slack_conversation</text></g><!--class slack_region--><g id="elem_slack_region"><rect codeLine="24" fill="#3D176E" height="39.7891" id="slack_region" rx="2.5" ry="2.5" style="stroke:#000D19;stroke-width:0.5;" width="145" x="187" y="7"/><ellipse cx="202" cy="26.8945" fill="#ADD1B2" rx="11" ry="11" style="stroke:#181818;stroke-width:1.0;"/><path d="M204.9688,32.5352 Q204.3906,32.832 203.75,32.9727 Q203.1094,33.1289 202.4063,33.1289 Q199.9063,33.1289 198.5781,31.4883 Q197.2656,29.832 197.2656,26.707 Q197.2656,23.582 198.5781,21.9258 Q199.9063,20.2695 202.4063,20.2695 Q203.1094,20.2695 203.75,20.4258 Q204.4063,20.582 204.9688,20.8789 L204.9688,23.5977 Q204.3438,23.0195 203.75,22.7539 Q203.1563,22.4727 202.5313,22.4727 Q201.1875,22.4727 200.5,23.5508 Q199.8125,24.6133 199.8125,26.707 Q199.8125,28.8008 200.5,29.8789 Q201.1875,30.9414 202.5313,30.9414 Q203.1563,30.9414 203.75,30.6758 Q204.3438,30.3945 204.9688,29.8164 L204.9688,32.5352 Z " fill="#000000"/><text fill="#D9B8FF" font-family="Helvetica" font-size="17" lengthAdjust="spacing" textLength="103" x="221" y="32.7798">slack_region</text></g><!--class slack_user--><g id="elem_slack_user"><rect codeLine="26" fill="#3D176E" height="39.7891" id="slack_user" rx="2.5" ry="2.5" style="stroke:#000D19;stroke-width:0.5;" width="128" x="195.5" y="206.58"/><ellipse cx="210.5" cy="226.4745" fill="#ADD1B2" rx="11" ry="11" style="stroke:#181818;stroke-width:1.0;"/><path d="M213.4688,232.1152 Q212.8906,232.412 212.25,232.5527 Q211.6094,232.7089 210.9063,232.7089 Q208.4063,232.7089 207.0781,231.0683 Q205.7656,229.412 205.7656,226.287 Q205.7656,223.162 207.0781,221.5058 Q208.4063,219.8495 210.9063,219.8495 Q211.6094,219.8495 212.25,220.0058 Q212.9063,220.162 213.4688,220.4589 L213.4688,223.1777 Q212.8438,222.5995 212.25,222.3339 Q211.6563,222.0527 211.0313,222.0527 Q209.6875,222.0527 209,223.1308 Q208.3125,224.1933 208.3125,226.287 Q208.3125,228.3808 209,229.4589 Q209.6875,230.5214 211.0313,230.5214 Q211.6563,230.5214 212.25,230.2558 Q212.8438,229.9745 213.4688,229.3964 L213.4688,232.1152 Z " fill="#000000"/><text fill="#D9B8FF" font-family="Helvetica" font-size="17" lengthAdjust="spacing" textLength="86" x="229.5" y="232.3598">slack_user</text></g><!--class slack_usergroup--><g id="elem_slack_usergroup"><rect codeLine="28" fill="#3D176E" height="39.7891" id="slack_usergroup" rx="2.5" ry="2.5" style="stroke:#000D19;stroke-width:0.5;" width="176" x="312.5" y="106.79"/><ellipse cx="327.5" cy="126.6845" fill="#ADD1B2" rx="11" ry="11" style="stroke:#181818;stroke-width:1.0;"/><path d="M330.4688,132.3252 Q329.8906,132.622 329.25,132.7627 Q328.6094,132.9189 327.9063,132.9189 Q325.4063,132.9189 324.0781,131.2783 Q322.7656,129.622 322.7656,126.497 Q322.7656,123.372 324.0781,121.7158 Q325.4063,120.0595 327.9063,120.0595 Q328.6094,120.0595 329.25,120.2158 Q329.9063,120.372 330.4688,120.6689 L330.4688,123.3877 Q329.8438,122.8095 329.25,122.5439 Q328.6563,122.2627 328.0313,122.2627 Q326.6875,122.2627 326,123.3408 Q325.3125,124.4033 325.3125,126.497 Q325.3125,128.5908 326,129.6689 Q326.6875,130.7314 328.0313,130.7314 Q328.6563,130.7314 329.25,130.4658 Q329.8438,130.1845 330.4688,129.6064 L330.4688,132.3252 Z " fill="#000000"/><text fill="#D9B8FF" font-family="Helvetica" font-size="17" lengthAdjust="spacing" textLength="134" x="346.5" y="132.5698">slack_usergroup</text></g><!--link slack_conversation to slack_user--><g id="link_slack_conversation_slack_user"><path codeLine="30" d="M136.73,147.01 C161.98,163.15 198,186.17 224.5,203.11 " fill="none" id="slack_conversation-to-slack_user" style="stroke:#1A83AF;stroke-width:2.0;"/><polygon fill="#1A83AF" points="228.33,206.2,222.8899,197.9899,224.1135,203.5128,218.5905,204.7364,228.33,206.2" style="stroke:#1A83AF;stroke-width:2.0;"/></g><!--link slack_region to slack_conversation--><g id="link_slack_region_slack_conversation"><path codeLine="31" d="M229.27,47.22 C204.02,63.36 168,86.38 141.5,103.32 " fill="none" id="slack_region-to-slack_conversation" style="stroke:#1A83AF;stroke-width:2.0;"/><polygon fill="#1A83AF" points="137.67,106.41,147.4095,104.9464,141.8865,103.7228,143.1101,98.1999,137.67,106.41" style="stroke:#1A83AF;stroke-width:2.0;"/></g><!--link slack_region to slack_user--><g id="link_slack_region_slack_user"><path codeLine="32" d="M259.5,47.2 C259.5,83.2 259.5,160.55 259.5,200.48 " fill="none" id="slack_region-to-slack_user" style="stroke:#1A83AF;stroke-width:2.0;"/><polygon fill="#1A83AF" points="259.5,205.09,263.5,196.09,259.5,200.09,255.5,196.09,259.5,205.09" style="stroke:#1A83AF;stroke-width:2.0;"/></g><!--link slack_region to slack_usergroup--><g id="link_slack_region_slack_usergroup"><path codeLine="33" d="M287.36,47.22 C310.53,63.29 343.55,86.19 367.94,103.11 " fill="none" id="slack_region-to-slack_usergroup" style="stroke:#1A83AF;stroke-width:2.0;"/><polygon fill="#1A83AF" points="371.7,106.41,366.5893,97.991,367.5932,103.558,362.0261,104.5619,371.7,106.41" style="stroke:#1A83AF;stroke-width:2.0;"/></g><!--link slack_usergroup to slack_user--><g id="link_slack_usergroup_slack_user"><path codeLine="34" d="M372.64,147.01 C349.47,163.08 316.45,185.98 292.06,202.9 " fill="none" id="slack_usergroup-to-slack_user" style="stroke:#1A83AF;stroke-width:2.0;"/><polygon fill="#1A83AF" points="288.3,206.2,297.9709,204.3361,292.4022,203.3413,293.397,197.7726,288.3,206.2" style="stroke:#1A83AF;stroke-width:2.0;"/></g><!--SRC=[ZP91IyD048Nl-HKBEHSQYoQv2B5Gz5B4UXEHQNQsNPhiXjbDInN_kqchPRD9Mw_pldtlpR1hoP5XMTazAx5S8fd0RAIgWA1a6P7UJNMXYOL2W9Z4lZZJobu5vb0YUyHYYrRcu1ElQvbl51h3RXpf0VBDYdIj-D7U4YZJIAYiGqqBC2QpbkIojkYKuUao4S8dVTDmmgFu3dkO9exqYup7OnwbFd8rwkBU9s8XFv55xj7cscAlPY_YG5risH9EoTwYV_hPZi_0kLGhTklCNewTI25rveirSBrhQG65SMECHK9jznLEUrjXcd0H3y9Fv-2ylHmpHID_v5fjc_yALch5leBlZaYu6XhNfga-D6p3geCoO3vw2wCicMIpzz6zyoReH0r0hibL-5-Efwg1N_qC_0C0]--></g></svg>

<svg xmlns="http://www.w3.org/2000/svg" width="495" height="252" preserveAspectRatio="none" style="width:495px;height:252px"><rect width="199" height="39.789" x="7" y="106.79" fill="#3D176E" rx="2.5" ry="2.5" style="stroke:#000d19;stroke-width:.5"/><circle cx="22" cy="126.684" r="11" fill="#ADD1B2" style="stroke:#181818;stroke-width:1"/><path d="M24.969 132.325q-.578.297-1.219.438-.64.156-1.344.156-2.5 0-3.828-1.64-1.312-1.657-1.312-4.782t1.312-4.781q1.328-1.656 3.828-1.656.703 0 1.344.156.656.156 1.219.453v2.719q-.625-.579-1.219-.844-.594-.281-1.219-.281-1.343 0-2.031 1.078-.688 1.062-.688 3.156 0 2.094.688 3.172.688 1.062 2.031 1.062.625 0 1.219-.265.594-.281 1.219-.86v2.72Z"/><text x="41" y="132.57" fill="#D9B8FF" font-family="Helvetica" font-size="17" textLength="157">slack_conversation</text><rect width="145" height="39.789" x="187" y="7" fill="#3D176E" rx="2.5" ry="2.5" style="stroke:#000d19;stroke-width:.5"/><circle cx="202" cy="26.895" r="11" fill="#ADD1B2" style="stroke:#181818;stroke-width:1"/><path d="M204.969 32.535q-.578.297-1.219.438-.64.156-1.344.156-2.5 0-3.828-1.64-1.312-1.657-1.312-4.782t1.312-4.781q1.328-1.656 3.828-1.656.703 0 1.344.156.656.156 1.219.453v2.719q-.625-.578-1.219-.844-.594-.281-1.219-.281-1.344 0-2.031 1.078-.688 1.062-.688 3.156 0 2.094.688 3.172.688 1.062 2.031 1.062.625 0 1.219-.265.594-.281 1.219-.86v2.72Z"/><text x="221" y="32.78" fill="#D9B8FF" font-family="Helvetica" font-size="17" textLength="103">slack_region</text><rect width="128" height="39.789" x="195.5" y="206.58" fill="#3D176E" rx="2.5" ry="2.5" style="stroke:#000d19;stroke-width:.5"/><circle cx="210.5" cy="226.475" r="11" fill="#ADD1B2" style="stroke:#181818;stroke-width:1"/><path d="M213.469 232.115q-.578.297-1.219.438-.64.156-1.344.156-2.5 0-3.828-1.64-1.312-1.657-1.312-4.782t1.312-4.781q1.328-1.656 3.828-1.656.703 0 1.344.156.656.156 1.219.453v2.719q-.625-.578-1.219-.844-.594-.281-1.219-.281-1.344 0-2.031 1.078-.688 1.062-.688 3.156 0 2.094.688 3.172.688 1.062 2.031 1.062.625 0 1.219-.265.594-.281 1.219-.86v2.72Z"/><text x="229.5" y="232.36" fill="#D9B8FF" font-family="Helvetica" font-size="17" textLength="86">slack_user</text><rect width="176" height="39.789" x="312.5" y="106.79" fill="#3D176E" rx="2.5" ry="2.5" style="stroke:#000d19;stroke-width:.5"/><circle cx="327.5" cy="126.684" r="11" fill="#ADD1B2" style="stroke:#181818;stroke-width:1"/><path d="M330.469 132.325q-.578.297-1.219.438-.64.156-1.344.156-2.5 0-3.828-1.64-1.312-1.657-1.312-4.782t1.312-4.781q1.328-1.656 3.828-1.656.703 0 1.344.156.656.156 1.219.453v2.719q-.625-.579-1.219-.844-.594-.281-1.219-.281-1.344 0-2.031 1.078-.688 1.062-.688 3.156 0 2.094.688 3.172.688 1.062 2.031 1.062.625 0 1.219-.265.594-.281 1.219-.86v2.72Z"/><text x="346.5" y="132.57" fill="#D9B8FF" font-family="Helvetica" font-size="17" textLength="134">slack_usergroup</text><path fill="none" d="M136.73 147.01c25.25 16.14 61.27 39.16 87.77 56.1" style="stroke:#1a83af;stroke-width:2"/><path fill="#1A83AF" d="m228.33 206.2-5.44-8.21 1.224 5.523-5.524 1.223 9.74 1.464z" style="stroke:#1a83af;stroke-width:2"/><path fill="none" d="M229.27 47.22c-25.25 16.14-61.27 39.16-87.77 56.1" style="stroke:#1a83af;stroke-width:2"/><path fill="#1A83AF" d="m137.67 106.41 9.74-1.464-5.523-1.223 1.223-5.523-5.44 8.21z" style="stroke:#1a83af;stroke-width:2"/><path fill="none" d="M259.5 47.2v153.28" style="stroke:#1a83af;stroke-width:2"/><path fill="#1A83AF" d="m259.5 205.09 4-9-4 4-4-4 4 9z" style="stroke:#1a83af;stroke-width:2"/><path fill="none" d="M287.36 47.22c23.17 16.07 56.19 38.97 80.58 55.89" style="stroke:#1a83af;stroke-width:2"/><path fill="#1A83AF" d="m371.7 106.41-5.11-8.419 1.003 5.567-5.567 1.004 9.674 1.848z" style="stroke:#1a83af;stroke-width:2"/><path fill="none" d="M372.64 147.01c-23.17 16.07-56.19 38.97-80.58 55.89" style="stroke:#1a83af;stroke-width:2"/><path fill="#1A83AF" d="m288.3 206.2 9.67-1.864-5.568-.995.995-5.568-5.097 8.427z" style="stroke:#1a83af;stroke-width:2"/></svg>
